X: 38
T: Qing liuliu de Qingdiao
%%abc-version 2.0
%%abcx-abcm2ps-target-version 5.9.1 (29 Sep 2008)
%%abc-creator hum2abc beta
%%abcx-conversion-date 2013/10/02 07:44:27
%%abc-edited-by Helmut Schaffrath
%%humdrum-veritas 3756958706
%%humdrum-veritas-data 1640771824
%%continueall 1
%%barnumbers 0
L: 1/8
M: 3/4
K: F
A2A c d/ f/ c [I:setbarnb 1]| 
A cd2c A | 
c Ad2d/ f/ c | 
c A A Dz2 | 
c2d2d g | 
d2c A c A | 
G2G F G F | 
G6 | 
A c G F D C | 
D6 |]  



